public/assets/logos/software/tailwind.svg

<svg fill="none" height="10" viewBox="0 0 10 10" width="10" xmlns="http://www.w3.org/2000/svg" xmlns:xlink="http://www.w3.org/1999/xlink"><clipPath id="a"><path d="m0 2.002h10v5.996h-10z"/></clipPath><g clip-path="url(#a)"><path d="m5.00018 2.002c-1.33284 0-2.16583.66624-2.49907 1.99859.49987-.66624 1.08298-.91598 1.74934-.74949.38024.095.65199.37087.95285.67611.48999.49724 1.05711 1.07273 2.29596 1.07273 1.33272 0 2.16583-.66624 2.49894-1.99871-.49974.66624-1.08285.91611-1.74933.74961-.38012-.095-.65187-.37087-.95273-.67611-.48999-.49724-1.05723-1.07273-2.29596-1.07273zm-2.49907 2.99794c-1.33272 0-2.165829.66624-2.49894707 1.99871.49974007-.66624 1.08285707-.91611 1.74933707-.74949.38012.09513.65186.37087.95273.67599.48999.49724 1.05723 1.07285 2.29595 1.07285 1.33285 0 2.16583-.66623 2.49908-1.99871-.49987.66624-1.08298.91611-1.74934.74949-.38024-.09487-.65199-.37087-.95286-.67599-.48999-.49724-1.0571-1.07285-2.29595-1.07285z" fill="#06b6d4"/></g></svg>

<svg width="10" height="10" viewBox="0 0 10 10" fill="none" xmlns="http://www.w3.org/2000/svg">
<g clip-path="url(#clip0_9_82)">
<path d="M5.00018 2.002C3.66734 2.002 2.83435 2.66824 2.50111 4.00059C3.00098 3.33435 3.58409 3.08461 4.25045 3.2511C4.63069 3.3461 4.90244 3.62197 5.2033 3.92721C5.69329 4.42445 6.26041 4.99994 7.49926 4.99994C8.83198 4.99994 9.66509 4.3337 9.9982 3.00123C9.49846 3.66747 8.91535 3.91734 8.24887 3.75084C7.86875 3.65584 7.597 3.37997 7.29614 3.07473C6.80615 2.57749 6.23891 2.002 5.00018 2.002ZM2.50111 4.99994C1.16839 4.99994 0.335281 5.66618 0.00216293 6.99865C0.501903 6.33241 1.08502 6.08254 1.7515 6.24916C2.13162 6.34429 2.40336 6.62003 2.70423 6.92515C3.19422 7.42239 3.76146 7.998 5.00018 7.998C6.33303 7.998 7.16601 7.33177 7.49926 5.99929C6.99939 6.66553 6.41628 6.9154 5.74992 6.74878C5.36968 6.65391 5.09793 6.37791 4.79706 6.07279C4.30707 5.57555 3.73996 4.99994 2.50111 4.99994Z" fill="#06B6D4"/>
</g>
<defs>
<clipPath id="clip0_9_82">
<rect width="10" height="5.996" fill="white" transform="translate(0 2.002)"/>
</clipPath>
</defs>
</svg>
